src/assets/images/map/markers/found/icon_29.svg

<?xml version="1.0" encoding="UTF-8" standalone="no"?>
<svg
   xmlns:dc="http://purl.org/dc/elements/1.1/"
   xmlns:cc="http://creativecommons.org/ns#"
   xmlns:rdf="http://www.w3.org/1999/02/22-rdf-syntax-ns#"
   xmlns:svg="http://www.w3.org/2000/svg"
   xmlns="http://www.w3.org/2000/svg"
   xmlns:sodipodi="http://sodipodi.sourceforge.net/DTD/sodipodi-0.dtd"
   xmlns:inkscape="http://www.inkscape.org/namespaces/inkscape"
   width="127pt"
   height="78pt"
   viewBox="0 0 127 78"
   version="1.1"
   id="svg5"
   sodipodi:docname="icon_29.svg"
   inkscape:version="0.92.1 r15371">
  <metadata
     id="metadata11">
    <rdf:RDF>
      <cc:Work
         rdf:about="">
        <dc:format>image/svg+xml</dc:format>
        <dc:type
           rdf:resource="http://purl.org/dc/dcmitype/StillImage" />
      </cc:Work>
    </rdf:RDF>
  </metadata>
  <defs
     id="defs9" />
  <sodipodi:namedview
     pagecolor="#ffffff"
     bordercolor="#666666"
     borderopacity="1"
     objecttolerance="10"
     gridtolerance="10"
     guidetolerance="10"
     inkscape:pageopacity="0"
     inkscape:pageshadow="2"
     inkscape:window-width="1366"
     inkscape:window-height="685"
     id="namedview7"
     showgrid="false"
     inkscape:zoom="2.1496063"
     inkscape:cx="-9.7692308"
     inkscape:cy="52"
     inkscape:window-x="0"
     inkscape:window-y="0"
     inkscape:window-maximized="1"
     inkscape:current-layer="surface1" />
  <g
     id="surface1">
    <path
       style="fill:#00ff00;fill-opacity:1;fill-rule:nonzero;stroke:none"
       d="M 39.417969,52.738281 35.636719,54 l -1.570313,3.789062 1.570313,4.105469 3.78125,1.578125 3.777343,-1.578125 c 1.046876,-1.050781 1.574219,-2.421875 1.574219,-4.105469 L 43.195312,54 39.417969,52.738281 M 64.285156,57.789062 62.714844,54 c -1.050782,-0.84375 -2.3125,-1.261719 -3.78125,-1.261719 L 55.15625,54 l -1.574219,3.789062 1.574219,4.105469 3.777344,1.578125 c 1.46875,0 2.730468,-0.523437 3.78125,-1.578125 l 1.570312,-4.105469 m 19.519532,0 L 82.546875,54 78.769531,52.738281 74.992188,54 73.101562,57.789062 c 0,1.683594 0.628907,3.054688 1.890626,4.105469 l 3.777343,1.578125 3.777344,-1.578125 1.257813,-4.105469 m 18.261722,4.105469 1.57422,-4.105469 L 102.06641,54 97.972656,52.738281 94.195312,54 l -1.261718,3.789062 1.261718,4.105469 3.777344,1.578125 4.093754,-1.578125 M 80.972656,0 h 4.40625 v 21.15625 l 3.777344,-0.3125 2.207031,0.628906 0.628907,3.160156 V 38.84375 l 17.000002,0.945312 c 6.92578,0.632813 11.12109,2 12.58984,4.105469 3.57031,4.210938 4.19922,9.15625 1.89063,14.84375 -1.89063,5.050781 -5.14063,9.261719 -9.75782,12.628907 -5.25,3.789062 -13.64453,6 -25.187496,6.632812 L 46.34375,76.738281 12.972656,70.421875 11.710938,73.894531 C 10.453125,75.578125 9.195312,76.210938 7.933594,75.789062 6.253906,76.210938 5.417969,74.84375 5.417969,71.683594 V 66.949219 L 0.0625,62.210938 c 0,-1.472657 1.050781,-2.949219 3.148438,-4.421876 L 6.359375,56.527344 6.046875,41.683594 6.988281,37.894531 8.25,37.578125 h 1.257812 c 1.050782,0.210937 1.890626,0.84375 2.519532,1.894531 l 1.257812,3.789063 0.632813,10.421875 20.460937,-7.261719 c 7.765625,-2.738281 18.15625,-4.949219 31.167969,-6.632813 v -8.839843 c 0,-3.160157 0.628906,-4.949219 1.886719,-5.371094 L 80.972656,22.105469 V 0"
       id="path2"
       inkscape:connector-curvature="0" />
  </g>
</svg>

<?xml version="1.0" encoding="UTF-8"?>
<svg xmlns="http://www.w3.org/2000/svg" xmlns:xlink="http://www.w3.org/1999/xlink" width="127pt" height="78pt" viewBox="0 0 127 78" version="1.1">
<g id="surface1">
<path style=" stroke:none;fill-rule:nonzero;fill:rgb(100%,100%,100%);fill-opacity:1;" d="M 39.417969 52.738281 L 35.636719 54 L 34.066406 57.789062 L 35.636719 61.894531 L 39.417969 63.472656 L 43.195312 61.894531 C 44.242188 60.84375 44.769531 59.472656 44.769531 57.789062 L 43.195312 54 L 39.417969 52.738281 M 64.285156 57.789062 L 62.714844 54 C 61.664062 53.15625 60.402344 52.738281 58.933594 52.738281 L 55.15625 54 L 53.582031 57.789062 L 55.15625 61.894531 L 58.933594 63.472656 C 60.402344 63.472656 61.664062 62.949219 62.714844 61.894531 L 64.285156 57.789062 M 83.804688 57.789062 L 82.546875 54 L 78.769531 52.738281 L 74.992188 54 L 73.101562 57.789062 C 73.101562 59.472656 73.730469 60.84375 74.992188 61.894531 L 78.769531 63.472656 L 82.546875 61.894531 L 83.804688 57.789062 M 102.066406 61.894531 L 103.640625 57.789062 L 102.066406 54 L 97.972656 52.738281 L 94.195312 54 L 92.933594 57.789062 L 94.195312 61.894531 L 97.972656 63.472656 L 102.066406 61.894531 M 80.972656 0 L 85.378906 0 L 85.378906 21.15625 L 89.15625 20.84375 L 91.363281 21.472656 L 91.992188 24.632812 L 91.992188 38.84375 L 108.992188 39.789062 C 115.917969 40.421875 120.113281 41.789062 121.582031 43.894531 C 125.152344 48.105469 125.78125 53.050781 123.472656 58.738281 C 121.582031 63.789062 118.332031 68 113.714844 71.367188 C 108.464844 75.15625 100.070312 77.367188 88.527344 78 L 46.34375 76.738281 L 12.972656 70.421875 L 11.710938 73.894531 C 10.453125 75.578125 9.195312 76.210938 7.933594 75.789062 C 6.253906 76.210938 5.417969 74.84375 5.417969 71.683594 L 5.417969 66.949219 L 0.0625 62.210938 C 0.0625 60.738281 1.113281 59.261719 3.210938 57.789062 L 6.359375 56.527344 L 6.046875 41.683594 L 6.988281 37.894531 L 8.25 37.578125 L 9.507812 37.578125 C 10.558594 37.789062 11.398438 38.421875 12.027344 39.472656 L 13.285156 43.261719 L 13.917969 53.683594 L 34.378906 46.421875 C 42.144531 43.683594 52.535156 41.472656 65.546875 39.789062 L 65.546875 30.949219 C 65.546875 27.789062 66.175781 26 67.433594 25.578125 L 80.972656 22.105469 L 80.972656 0 "/>
</g>
</svg>
